svgs/solid/face-vomit.svg

<svg xmlns="http://www.w3.org/2000/svg" viewBox="0 0 576 512"><!--! Font Awesome Pro 6.2.0 by @fontawesome - https://fontawesome.com License - https://fontawesome.com/license (Commercial License) Copyright 2022 Fonticons, Inc. --><path d="M544 256c0 72.5-30.1 137.9-78.5 184.5l-16.7-5.6c-11.9-4-21.5-12.3-27.2-22.9c16.7-12.6 26.4-27.7 26.4-44c0-44.2-71.6-80-160-80s-160 35.8-160 80c0 16.3 9.7 31.4 26.4 44c-5.7 10.6-15.2 19-27.2 22.9l-16.7 5.6C62.1 393.9 32 328.5 32 256C32 114.6 146.6 0 288 0S544 114.6 544 256zM148 141.1c0 2.8 1 5.5 2.8 7.6l36 43.2-36 43.2c-1.8 2.1-2.8 4.8-2.8 7.6c0 9 9.6 14.7 17.5 10.5l89.9-47.9c10.7-5.7 10.7-21.1 0-26.8l-89.9-47.9c-7.9-4.2-17.5 1.5-17.5 10.5zm262.5-10.5l-89.9 47.9c-10.7 5.7-10.7 21.1 0 26.8l89.9 47.9c7.9 4.2 17.5-1.5 17.5-10.5c0-2.8-1-5.5-2.8-7.6l-36-43.2 36-43.2c1.8-2.1 2.8-4.8 2.8-7.6c0-9-9.6-14.7-17.5-10.5zM32 512c-17.7 0-32-14.3-32-32s14.3-32 32-32s32 14.3 32 32s-14.3 32-32 32zm544-64c0 17.7-14.3 32-32 32s-32-14.3-32-32s14.3-32 32-32s32 14.3 32 32zM192 396.1V338.7c23.6-11.1 57.3-18.7 96-18.7s72.4 7.6 96 18.7v57.4c0 31 19.8 58.5 49.2 68.3l34.1 11.4c7.6 2.5 12.7 9.6 12.7 17.6c0 10.3-8.3 18.6-18.6 18.6H114.6c-10.3 0-18.6-8.3-18.6-18.6c0-8 5.1-15.1 12.7-17.6l34.1-11.4c29.4-9.8 49.2-37.3 49.2-68.3zM304 384c-8.8 0-16 7.2-16 16s7.2 16 16 16s16-7.2 16-16s-7.2-16-16-16zm-48 48c0-8.8-7.2-16-16-16s-16 7.2-16 16s7.2 16 16 16s16-7.2 16-16z"/></svg>

<svg xmlns="http://www.w3.org/2000/svg" viewBox="0 0 576 512"><!--! Font Awesome Pro 6.1.2 by @fontawesome - https://fontawesome.com License - https://fontawesome.com/license (Commercial License) Copyright 2022 Fonticons, Inc. --><path d="M544 256C544 328.5 513.9 393.9 465.5 440.5L448.8 434.9C436.9 430.1 427.3 422.6 421.6 412C438.3 399.4 448 384.3 448 368C448 323.8 376.4 288 288 288C199.6 288 128 323.8 128 368C128 384.3 137.7 399.4 154.4 412C148.7 422.6 139.1 430.1 127.2 434.9L110.5 440.5C62.12 393.9 32 328.5 32 256C32 114.6 146.6 0 288 0C429.4 0 544 114.6 544 256V256zM150.8 148.8L186.8 192L150.8 235.2C148.1 237.4 148 240.1 148 242.9C148 251.8 157.6 257.6 165.5 253.3L255.4 205.4C266.1 199.7 266.1 184.3 255.4 178.6L165.5 130.7C157.6 126.4 148 132.2 148 141.1C148 143.9 148.1 146.6 150.8 148.8V148.8zM320.6 178.6C309.9 184.3 309.9 199.7 320.6 205.4L410.5 253.3C418.4 257.6 428 251.8 428 242.9C428 240.1 427 237.4 425.2 235.2L389.2 192L425.2 148.8C427 146.6 428 143.9 428 141.1C428 132.2 418.4 126.4 410.5 130.7L320.6 178.6zM0 480C0 462.3 14.33 448 32 448C49.67 448 64 462.3 64 480C64 497.7 49.67 512 32 512C14.33 512 0 497.7 0 480zM576 448C576 465.7 561.7 480 544 480C526.3 480 512 465.7 512 448C512 430.3 526.3 416 544 416C561.7 416 576 430.3 576 448zM192 396.1V338.7C215.6 327.6 249.3 320 287.1 320C326.7 320 360.4 327.6 384 338.7V396.1C384 427.1 403.8 454.6 433.2 464.4L467.3 475.8C474.9 478.3 480 485.4 480 493.4C480 503.7 471.7 512 461.4 512H114.6C104.3 512 96 503.7 96 493.4C96 485.4 101.1 478.3 108.7 475.8L142.8 464.4C172.2 454.6 192 427.1 192 396.1H192zM288 400C288 408.8 295.2 416 304 416C312.8 416 320 408.8 320 400C320 391.2 312.8 384 304 384C295.2 384 288 391.2 288 400zM240 416C231.2 416 224 423.2 224 432C224 440.8 231.2 448 240 448C248.8 448 256 440.8 256 432C256 423.2 248.8 416 240 416z"/></svg>
